public/img/nodejs.svg

<svg width="87" height="87" viewBox="0 0 87 87" fill="none" xmlns="http://www.w3.org/2000/svg">
<path d="M43.5 79.6958C42.5031 79.6958 41.5715 79.4275 40.7015 78.9635L31.8601 73.7145C30.537 72.9786 31.2004 72.7104 31.5991 72.5763C33.3971 71.9781 33.7306 71.8476 35.5902 70.7891C35.7932 70.655 36.0579 70.7166 36.2609 70.8508L43.0396 74.9108C43.3079 75.0413 43.6414 75.0413 43.8407 74.9108L70.3721 59.5516C70.6404 59.4211 70.7709 59.1529 70.7709 58.8194V28.1591C70.7709 27.8293 70.6404 27.561 70.3721 27.4305L43.8407 12.1366C43.5761 12.0025 43.2426 12.0025 43.0396 12.1366L16.501 27.4269C16.2364 27.5574 16.1022 27.8945 16.1022 28.1555V58.8121C16.1022 59.0768 16.2364 59.4139 16.501 59.5444L23.751 63.7385C27.6732 65.725 30.1382 63.3941 30.1382 61.0741V30.8199C30.1382 30.4211 30.4681 30.0188 30.9357 30.0188H34.3287C34.7202 30.0188 35.1262 30.3523 35.1262 30.8199V61.0778C35.1262 66.3304 32.2697 69.3935 27.2817 69.3935C25.752 69.3935 24.5557 69.3935 21.1627 67.726L14.1846 63.7421C13.3344 63.2479 12.6288 62.5391 12.1383 61.6867C11.6479 60.8343 11.3898 59.8681 11.3897 58.8846V28.2244C11.3897 26.2306 12.4519 24.3674 14.1846 23.3705L40.7051 8.01138C41.566 7.55095 42.5273 7.31006 43.5036 7.31006C44.4799 7.31006 45.4412 7.55095 46.3021 8.01138L72.8262 23.3705C74.5626 24.3638 75.6211 26.2306 75.6211 28.2244V58.8846C75.6211 60.8748 74.559 62.738 72.8262 63.7421L46.3021 79.0976C45.4285 79.4964 44.4316 79.6958 43.5 79.6958V79.6958ZM51.678 58.6128C40.0417 58.6128 37.6492 53.2913 37.6492 48.7745C37.6492 48.3758 37.9827 47.9734 38.4467 47.9734H41.905C42.3037 47.9734 42.6336 48.238 42.6336 48.6404C43.1665 52.1603 44.6926 53.893 51.7469 53.893C57.3294 53.893 59.7291 52.6243 59.7291 49.6336C59.7291 47.9045 59.0585 46.643 50.3512 45.7803C43.1049 45.0553 38.5845 43.4494 38.5845 37.6675C38.5845 32.2844 43.1049 29.0908 50.6884 29.0908C59.1962 29.0908 63.3867 32.0234 63.916 38.3998C63.9096 38.6149 63.8389 38.8233 63.713 38.9979C63.5789 39.1284 63.3831 39.2625 63.1837 39.2625H59.7291C59.5583 39.2589 59.3937 39.1985 59.2611 39.0908C59.1285 38.9832 59.0355 38.8344 58.9969 38.668C58.1957 34.9995 56.1367 33.8105 50.6884 33.8105C44.5657 33.8105 43.8335 35.9384 43.8335 37.5334C43.8335 39.4583 44.6926 40.0564 52.9467 41.1221C61.1247 42.1843 64.9817 43.714 64.9817 49.4379C64.9092 55.2923 60.1279 58.6128 51.678 58.6128V58.6128Z" fill="#EEEEEE"/>
</svg>

<svg xmlns="http://www.w3.org/2000/svg" width="87" height="87" fill="none" xmlns:v="https://vecta.io/nano"><path d="M43.5 79.696c-.997 0-1.928-.268-2.798-.732l-8.841-5.249c-1.323-.736-.66-1.004-.261-1.138 1.798-.598 2.132-.729 3.991-1.787.203-.134.468-.073.671.062l6.779 4.06c.268.131.602.131.801 0l26.531-15.359c.268-.13.399-.399.399-.732v-30.66c0-.33-.13-.598-.399-.729L43.841 12.137c-.265-.134-.598-.134-.801 0l-26.539 15.29c-.265.131-.399.468-.399.729v30.657c0 .265.134.602.399.732l7.25 4.194c3.922 1.986 6.387-.344 6.387-2.664V30.82a.81.81 0 0 1 .797-.801h3.393c.392 0 .797.334.797.801v30.258c0 5.253-2.856 8.316-7.844 8.316-1.53 0-2.726 0-6.119-1.668l-6.978-3.984a5.62 5.62 0 0 1-2.795-4.858v-30.66c0-1.994 1.062-3.857 2.795-4.854L40.705 8.011c.861-.46 1.822-.701 2.798-.701s1.938.241 2.799.701l26.524 15.359c1.736.993 2.795 2.86 2.795 4.854v30.66c0 1.99-1.062 3.853-2.795 4.858L46.302 79.098a6.88 6.88 0 0 1-2.802.598h0zm8.178-21.083c-11.636 0-14.029-5.321-14.029-9.838 0-.399.334-.801.797-.801h3.458c.399 0 .729.265.729.667.533 3.52 2.059 5.253 9.113 5.253 5.583 0 7.982-1.269 7.982-4.259 0-1.729-.671-2.991-9.378-3.853-7.246-.725-11.767-2.331-11.767-8.113 0-5.383 4.52-8.577 12.104-8.577 8.508 0 12.698 2.933 13.228 9.309a1.08 1.08 0 0 1-.203.598c-.134.13-.33.265-.529.265h-3.455a.77.77 0 0 1-.732-.595c-.801-3.669-2.86-4.858-8.308-4.858-6.123 0-6.855 2.128-6.855 3.723 0 1.925.859 2.523 9.113 3.589 8.178 1.062 12.035 2.592 12.035 8.316-.073 5.854-4.854 9.175-13.304 9.175h0z" fill="#eee"/></svg>
